X:2
T:Bold McShane
C:Traditional
S:Eddie and Finbar Furey
K:Ador
M:3/4
L:1/8
A2 | A3 B c2 | d3 e d2 | c3 A B2 | c4 c2 | A3 B c2 | d3 e d2 | c3 A B2 | c4 c2 |
A3 B c2 | d2 e2 d2 | c2 A2 G2 | F2 G2 A2 | B3 B B2 | c2 A2 G2 | F3 D D2 | D6 |
D3 E F2 | G6 | A2 F2 D2 | F(A A3) | B3 B B2 | c3 A G2 | F3 D D2 | D6 |
| B3 B B2 | c3 A G2 | F3 D D2 | D4 :|
%%textfont Times-Roman 24
%%begintext
My name is McShane from the plains of Kildare
A farmer I was until the last year
Till I took a notion oh via promotion
Went over to England the harvest the shear

Rum toora la rum toora laddie rum toora la musha rum toora lay

I parted with money so blithe and so jolly
Picked up a stick for a staff in me hand
And to keep myself cheery for fear I'd get weary
I sang Paddywhack as I went on my way.

I landed at Dumbarton on a fine summers evening
Me bundle and staff I held them in me hands
There were some of them laughing and some of them chaffin'
More of them trying to stick Paddy away.

I went into a woman to ask her for lodgings
She said "Me young man, now don't look so dull!
For I will tell you where you will get lodgings
With a woman who lives next door to The Black Bull."

So I went to this woman and asked her for lodgings
She instantly showed me to a bed in a room
And I being so tired and worn out from walking
I threw myself down on me bed in the room.

But a lump of a Tinker lay up in the corner
He swore 'pon his soul sure he'd kill all was there
Says I "Me bold Tinker, give over your braggin',
I'm bold McShane from the plains of Kildare!"

But he tried for to hit me a punch in the stomach
I instantly fetched him a one in the throat
And he tumbled heels over his head in the corner
And put all his head in an old rusty pot.

He lay on the floor like a sheep he was bleeding
I swore 'pon my soul sure I'd cut off his life
But I lifted him up and sent down for to Megan
Me and the Tinker we ended the strife.
%%endtext
%%newpage

